public/images/marquee/salesforce.svg

<svg xmlns="http://www.w3.org/2000/svg" fill="none" viewBox="0 0 147 36">
  <path fill="#CFD1D7" fill-rule="evenodd" d="M21.831 3.92031c1.6454-1.72699 3.9354-2.79644 6.4654-2.79644 3.3732 0 6.2967 1.88948 7.8709 4.70482 1.3974-.62982 2.9109-.95498 4.4415-.95419 6.0719 0 11.0006 5.00713 11.0006 11.1858 0 6.1786-4.9287 11.1857-11.0006 11.1857-.7421 0-1.4655-.0752-2.1739-.2173-1.3774 2.4752-4.0104 4.1569-7.0089 4.1569-1.2208.0024-2.4259-.2768-3.5232-.8163C26.5067 33.6759 23.2552 36 19.4697 36c-3.9542 0-7.3088-2.513-8.6019-6.0464-.5755.1225-1.1621.1841-1.7503.1837-4.70383 0-8.508125-3.8923-8.508125-8.6727 0-3.2122 1.712865-6.0086 4.254065-7.5202-.53912-1.2522-.81662-2.6029-.81521-3.96791C4.04823 4.45919 8.48969 0 13.9619 0c3.2046 0 6.0719 1.53993 7.8709 3.93013M63.6344 21.2101c-.0692.1824.0247.2205.047.2528.2069.1514.417.261.6276.3842 1.1256.6014 2.1864.7773 3.2958.7773 2.2593 0 3.6643-1.2151 3.6643-3.1707v-.0384c0-1.8084-1.5872-2.4671-3.0691-2.9376l-.194-.0634c-1.1215-.3674-2.0892-.6873-2.0892-1.4319v-.0381c0-.6382.5668-1.1087 1.4414-1.1087.9718 0 2.1298.3269 2.8707.7405 0 0 .2195.1432.2992-.0707.0433-.1158.4211-1.1374.4616-1.252.0429-.1198-.0324-.2103-.1097-.2569-.8503-.5237-2.0245-.8796-3.2392-.8796l-.2255.0008c-2.069 0-3.5145 1.2642-3.5145 3.0725v.0389c0 1.9065 1.5953 2.5284 3.0853 2.958l.2397.0752c1.0851.3372 2.0245.6301 2.0245 1.3992V19.7c0 .7078-.6114 1.2356-1.5912 1.2356-.3811 0-1.5953-.0066-2.9112-.8469-.1592-.0937-.2498-.1612-.3725-.2369-.0648-.0397-.2268-.1113-.2972.1031l-.4454 1.2519m33.0797 0c-.0692.1825.0247.2205.0478.2528.2061.1514.4171.2611.6276.3842 1.1256.6014 2.1864.7773 3.2961.7773 2.259 0 3.664-1.2151 3.664-3.1707v-.0384c0-1.8083-1.583-2.467-3.069-2.9375l-.194-.0634c-1.1216-.3674-2.0893-.6874-2.0893-1.432v-.038c0-.6383.5669-1.1088 1.4413-1.1088.972 0 2.126.3269 2.871.7406 0 0 .219.1432.299-.0708.043-.1158.422-1.1374.458-1.2519.043-.1199-.032-.2103-.109-.257-.851-.5236-2.025-.8796-3.239-.8796l-.226.0008c-2.0694 0-3.5149 1.2642-3.5149 3.0726v.0388c0 1.9065 1.5953 2.5284 3.0849 2.958l.24.0753c1.089.3371 2.024.63 2.024 1.3992v.0384c0 .7078-.611 1.2356-1.591 1.2356-.382 0-1.5994-.0066-2.9112-.8469-.1592-.0937-.2523-.1583-.3729-.2369-.0409-.0262-.2316-.1014-.2968.1031l-.4454 1.2519m22.5933-3.8294c0 1.1047-.204 1.9761-.604 2.5939-.398.6096-1 .9082-1.838.9082-.838 0-1.437-.2962-1.83-.9041-.395-.6137-.595-1.4892-.595-2.5939 0-1.1046.201-1.972.595-2.5815.392-.6055.988-.896 1.83-.896.842 0 1.442.2933 1.838.896.402.6095.604 1.4769.604 2.5815m1.887-2.0497c-.186-.6341-.474-1.1905-.859-1.6569-.385-.4664-.87-.8428-1.449-1.1129-.575-.272-1.256-.4091-2.025-.4091-.769 0-1.445.1379-2.024.4091-.575.2717-1.065.6465-1.45 1.1129-.384.4664-.672 1.0228-.858 1.6569-.184.6301-.278 1.3174-.278 2.0497 0 .7324.094 1.4197.278 2.0497.185.6342.474 1.1906.858 1.657.385.4664.875.8387 1.45 1.1046.579.2651 1.259.4001 2.024.4001.765 0 1.446-.135 2.021-.4001s1.064-.6382 1.449-1.1046c.384-.4664.672-1.0228.858-1.657.184-.63.278-1.3173.278-2.0497 0-.7282-.094-1.4196-.278-2.0497m15.508 5.2368c-.062-.1853-.241-.1154-.241-.1154-.274.106-.567.2042-.879.2533-.314.0499-.664.0748-1.032.0748-.911 0-1.64-.2745-2.158-.8182-.523-.5441-.814-1.4197-.81-2.6061.003-1.0801.261-1.8902.725-2.512.457-.6137 1.162-.9328 2.093-.9328.777 0 1.373.0912 1.996.2884 0 0 .148.065.219-.1318.165-.4623.288-.7937.465-1.301.051-.1452-.072-.2066-.117-.2242-.245-.0965-.822-.2548-1.26-.3215-.409-.063-.882-.0958-1.417-.0958-.793 0-1.498.1371-2.101.4087-.603.2713-1.114.6465-1.518 1.1129-.405.4664-.713 1.0228-.92 1.6569-.204.6301-.307 1.3215-.307 2.0538 0 1.5792.421 2.8598 1.255 3.7967.834.941 2.089 1.4155 3.725 1.4155.968 0 1.96-.1976 2.672-.4827 0 0 .136-.0663.077-.2267l-.466-1.2928m3.3-4.2549c.091-.6137.257-1.1251.519-1.5219.391-.6055.988-.9369 1.826-.9369.838 0 1.393.333 1.789.9369.264.3989.378.9287.421 1.5219l-4.575-.0008.02.0008Zm6.357-1.3501c-.161-.6096-.559-1.2274-.818-1.5097-.413-.4459-.814-.7609-1.214-.9328-.579-.2486-1.202-.3762-1.83-.3751-.798 0-1.523.1362-2.11.4132-.587.279-1.081.6587-1.47 1.1333-.388.4745-.68 1.035-.866 1.6774-.186.6341-.28 1.3296-.28 2.0579 0 .7446.097 1.436.289 2.0619.194.6301.506 1.1824.927 1.6406.421.4623.96.8224 1.608 1.076.644.2516 1.425.3821 2.32.3793 1.846-.0062 2.818-.4214 3.215-.6464.07-.0401.137-.1093.054-.3085l-.417-1.1824c-.064-.1763-.241-.1125-.241-.1125-.457.1727-1.105.4828-2.623.4787-.992-.0017-1.725-.2975-2.187-.761-.469-.4746-.704-1.166-.741-2.1479l6.398.0049s.168-.0016.185-.1677c.007-.0688.219-1.3256-.19-2.778l-.009-.0012Zm-57.4946 1.3501c.0903-.6137.2571-1.1251.5182-1.5219.392-.6055.988-.9369 1.8261-.9369.8381 0 1.3928.333 1.7896.9369.2628.3989.3778.9287.4211 1.5219l-4.5753-.0008.0203.0008Zm6.3568-1.3501c-.1603-.6096-.5587-1.2274-.8179-1.5097-.413-.4459-.8138-.7609-1.2147-.9328-.5787-.2486-1.2012-.3762-1.8301-.3751-.7976 0-1.5224.1362-2.1095.4132-.5871.279-1.081.6587-1.4697 1.1333-.3875.4745-.6802 1.035-.8665 1.6774-.1858.6341-.2794 1.3296-.2794 2.0579 0 .7446.0968 1.436.2899 2.0619.1936.6301.5061 1.1824.9232 1.6406.4211.4623.9596.8224 1.6074 1.076.6438.2516 1.4212.3821 2.32.3793 1.8464-.0062 2.8181-.4214 3.2149-.6464.0704-.0401.1377-.1093.0538-.3085l-.417-1.1824c-.0644-.1763-.2409-.1125-.2409-.1125-.4575.1727-1.1054.4828-2.6237.4787-.9879-.0017-1.7249-.2975-2.1864-.761-.4697-.4746-.7045-1.166-.741-2.1479l6.3973.0049s.1685-.0016.1859-.1677c.0069-.0688.219-1.3256-.1911-2.778l-.0045-.0012Zm-20.1637 5.5641c-.2506-.2021-.2854-.2516-.3684-.383-.1267-.1976-.1915-.4786-.1915-.8387 0-.5645.1862-.9737.5709-1.2478-.0041.0008.5506-.4828 1.8544-.4664.5803.0105 1.1592.0604 1.7329.1493v2.9335h.0008s-.8098.1763-1.7248.2319c-1.2997.079-1.8747-.378-1.8706-.3768l-.0037-.002Zm2.5428-4.5413c-.2592-.0192-.5952-.0286-.9961-.0286-.5466 0-1.077.0687-1.571.2037-.498.1358-.9474.3461-1.3321.626-.3857.278-.7029.642-.9272 1.0637-.2263.4255-.3417.9246-.3417 1.4892 0 .5728.0984 1.0678.2927 1.4729.1905.4017.4772.7491.8341 1.0105.3551.261.7936.4541 1.2997.5687.5021.1158 1.069.1743 1.6925.1743.6559 0 1.3078-.0557 1.9394-.1633.538-.0937 1.0739-.199 1.6075-.3158.2129-.0495.4494-.1146.4494-.1146.1579-.0405.1457-.2111.1457-.2111l-.0036-5.8914c0-1.2928-.3417-2.2542-1.0163-2.8475-.6721-.5932-1.656-.8919-2.9314-.8919-.4778 0-1.2511.0655-1.7127.1592 0 0-1.3928.2733-1.9678.7282 0 0-.1263.0786-.0575.2566l.4535 1.2273c.0563.1592.2097.1048.2097.1048s.0482-.0193.1049-.0532c1.2268-.6751 2.7816-.6546 2.7816-.6546.6883 0 1.2228.1411 1.5791.4173.3486.2704.5264.6791.5264 1.5383v.2729c-.5466-.0802-1.0528-.1265-1.0528-.1265l-.006-.0151Zm51.4217-3.3262c.009-.0215.014-.0448.014-.0683s-.005-.0467-.014-.0684c-.008-.0217-.022-.0413-.038-.0578-.017-.0164-.037-.0293-.058-.0378-.109-.0418-.652-.1576-1.069-.1837-.802-.0508-1.247.0859-1.648.2675-.396.1804-.834.4705-1.077.806l-.001-.7855c0-.108-.076-.1952-.183-.1952h-1.636c-.106 0-.183.0872-.183.1952v9.6144c0 .0519.02.1017.057.1384.036.0368.085.0574.137.0576h1.676c.051-.0002.101-.0208.137-.0576.036-.0367.057-.0865.057-.1384v-4.8277c0-.6464.07-1.2887.211-1.6937.138-.4006.326-.7201.558-.9492.222-.2213.492-.3855.79-.4787.279-.0809.568-.122.858-.1219.334 0 .701.0867.701.0867.123.0139.191-.0622.233-.1743.11-.2949.421-1.1782.482-1.3542" clip-rule="evenodd"/>
  <path fill="#CFD1D7" fill-rule="evenodd" d="M113.356 8.21958c-.208-.06327-.418-.11382-.632-.15137-.286-.04838-.577-.0711-.868-.06792-1.155 0-2.065.32976-2.705.98108-.635.64642-1.067 1.63113-1.283 2.92683l-.078.4374h-1.45s-.177-.0074-.215.1878l-.238 1.3419c-.016.1285.038.2087.209.2078h1.411l-1.432 8.0774c-.112.6505-.241 1.1856-.383 1.5911-.14.4001-.277.7-.445.9176-.163.2107-.318.3658-.585.4562-.22.0749-.474.1092-.751.1092-.155 0-.361-.0262-.512-.0568-.152-.0303-.231-.0647-.345-.113 0 0-.166-.0638-.231.104-.053.137-.429 1.1823-.474 1.3116-.045.1277.019.2283.099.2573.188.068.327.1113.583.1723.356.0847.655.09.936.09.588 0 1.124-.0835 1.568-.2455.447-.1632.836-.4476 1.18-.8325.372-.4153.606-.8502.83-1.4434.222-.5879.41-1.3178.561-2.1684l1.439-8.2271h2.104s.177.0066.214-.1877l.238-1.342c.017-.1284-.037-.2086-.208-.2078h-2.042c.01-.0466.103-.7724.337-1.4557.1-.2917.288-.5269.448-.6885.149-.1539.332-.26929.535-.33632.222-.06933.453-.10301.685-.09983.193 0 .381.02332.525.0536.198.04255.275.06505.327.0806.208.06423.236.00204.277-.09983l.488-1.35502c.05-.14565-.072-.20702-.117-.22502ZM84.8212 22.1777c0 .108-.0761.1959-.183.1959h-1.6936c-.1073 0-.1834-.0879-.1834-.1959V8.40328c0-.1076.0761-.19474.1834-.19474h1.6936c.1069 0 .183.08714.183.19474V22.1777Z" clip-rule="evenodd"/>
</svg>

<svg width="147" height="36" viewBox="0 0 147 36" fill="none" xmlns="http://www.w3.org/2000/svg">
<path fill-rule="evenodd" clip-rule="evenodd" d="M21.831 3.92031C23.4764 2.19332 25.7664 1.12387 28.2964 1.12387C31.6696 1.12387 34.5931 3.01335 36.1673 5.82869C37.5647 5.19887 39.0782 4.87371 40.6088 4.8745C46.6807 4.8745 51.6094 9.88163 51.6094 16.0603C51.6094 22.2389 46.6807 27.246 40.6088 27.246C39.8667 27.246 39.1433 27.1708 38.4349 27.0287C37.0575 29.5039 34.4245 31.1856 31.426 31.1856C30.2052 31.188 29.0001 30.9088 27.9028 30.3693C26.5067 33.6759 23.2552 36 19.4697 36C15.5155 36 12.1609 33.487 10.8678 29.9536C10.2923 30.0761 9.7057 30.1377 9.1175 30.1373C4.41367 30.1373 0.609375 26.245 0.609375 21.4646C0.609375 18.2524 2.32224 15.456 4.86344 13.9444C4.32432 12.6922 4.04682 11.3415 4.04823 9.97649C4.04823 4.45919 8.48969 0 13.9619 0C17.1665 0 20.0338 1.53993 21.8328 3.93013" fill="#CFD1D7"/>
<path fill-rule="evenodd" clip-rule="evenodd" d="M63.6344 21.2101C63.5652 21.3925 63.6591 21.4306 63.6814 21.4629C63.8883 21.6143 64.0984 21.7239 64.309 21.8471C65.4346 22.4485 66.4954 22.6244 67.6048 22.6244C69.8641 22.6244 71.2691 21.4093 71.2691 19.4537V19.4153C71.2691 17.6069 69.6819 16.9482 68.2 16.4777L68.006 16.4143C66.8845 16.0469 65.9168 15.727 65.9168 14.9824V14.9443C65.9168 14.3061 66.4836 13.8356 67.3582 13.8356C68.33 13.8356 69.488 14.1625 70.2289 14.5761C70.2289 14.5761 70.4484 14.7193 70.5281 14.5054C70.5714 14.3896 70.9492 13.368 70.9897 13.2534C71.0326 13.1336 70.9573 13.0431 70.88 12.9965C70.0297 12.4728 68.8555 12.1169 67.6408 12.1169L67.4153 12.1177C65.3463 12.1177 63.9008 13.3819 63.9008 15.1902V15.2291C63.9008 17.1356 65.4961 17.7575 66.9861 18.1871L67.2258 18.2623C68.3109 18.5995 69.2503 18.8924 69.2503 19.6615V19.7C69.2503 20.4078 68.6389 20.9356 67.6591 20.9356C67.278 20.9356 66.0638 20.929 64.7479 20.0887C64.5887 19.995 64.4981 19.9275 64.3754 19.8518C64.3106 19.8121 64.1486 19.7405 64.0782 19.9549L63.6328 21.2068M96.7125 21.2068C96.6433 21.3893 96.7372 21.4273 96.7603 21.4596C96.9664 21.611 97.1774 21.7207 97.3879 21.8438C98.5135 22.4452 99.5743 22.6211 100.684 22.6211C102.943 22.6211 104.348 21.406 104.348 19.4504V19.412C104.348 17.6037 102.765 16.945 101.279 16.4745L101.085 16.4111C99.9634 16.0437 98.9957 15.7237 98.9957 14.9791V14.9411C98.9957 14.3028 99.5626 13.8323 100.437 13.8323C101.409 13.8323 102.563 14.1592 103.308 14.5729C103.308 14.5729 103.527 14.7161 103.607 14.5021C103.65 14.3863 104.029 13.3647 104.065 13.2502C104.108 13.1303 104.033 13.0399 103.956 12.9932C103.105 12.4696 101.931 12.1136 100.717 12.1136L100.491 12.1144C98.4216 12.1144 96.9761 13.3786 96.9761 15.187V15.2258C96.9761 17.1323 98.5714 17.7542 100.061 18.1838L100.301 18.2591C101.39 18.5962 102.325 18.8891 102.325 19.6583V19.6967C102.325 20.4045 101.714 20.9323 100.734 20.9323C100.352 20.9323 99.1346 20.9257 97.8228 20.0854C97.6636 19.9917 97.5705 19.9271 97.4499 19.8485C97.409 19.8223 97.2183 19.7471 97.1531 19.9516L96.7077 21.2035M119.301 17.3741C119.301 18.4788 119.097 19.3502 118.697 19.968C118.299 20.5776 117.697 20.8762 116.859 20.8762C116.021 20.8762 115.422 20.58 115.029 19.9721C114.634 19.3584 114.434 18.4829 114.434 17.3782C114.434 16.2736 114.635 15.4062 115.029 14.7967C115.421 14.1912 116.017 13.9007 116.859 13.9007C117.701 13.9007 118.301 14.194 118.697 14.7967C119.099 15.4062 119.301 16.2736 119.301 17.3782M121.188 15.3285C121.002 14.6944 120.714 14.138 120.329 13.6716C119.944 13.2052 119.459 12.8288 118.88 12.5587C118.305 12.2867 117.624 12.1496 116.855 12.1496C116.086 12.1496 115.41 12.2875 114.831 12.5587C114.256 12.8304 113.766 13.2052 113.381 13.6716C112.997 14.138 112.709 14.6944 112.523 15.3285C112.339 15.9586 112.245 16.6459 112.245 17.3782C112.245 18.1106 112.339 18.7979 112.523 19.4279C112.708 20.0621 112.997 20.6185 113.381 21.0849C113.766 21.5513 114.256 21.9236 114.831 22.1895C115.41 22.4546 116.09 22.5896 116.855 22.5896C117.62 22.5896 118.301 22.4546 118.876 22.1895C119.451 21.9244 119.94 21.5513 120.325 21.0849C120.709 20.6185 120.997 20.0621 121.183 19.4279C121.367 18.7979 121.461 18.1106 121.461 17.3782C121.461 16.65 121.367 15.9586 121.183 15.3285M136.691 20.5653C136.629 20.38 136.45 20.4499 136.45 20.4499C136.176 20.5559 135.883 20.6541 135.571 20.7032C135.257 20.7531 134.907 20.778 134.539 20.778C133.628 20.778 132.899 20.5035 132.381 19.9598C131.858 19.4157 131.567 18.5401 131.571 17.3537C131.574 16.2736 131.832 15.4635 132.296 14.8417C132.753 14.228 133.458 13.9089 134.389 13.9089C135.166 13.9089 135.762 14.0001 136.385 14.1973C136.385 14.1973 136.533 14.2623 136.604 14.0655C136.769 13.6032 136.892 13.2718 137.069 12.7645C137.12 12.6193 136.997 12.5579 136.952 12.5403C136.707 12.4438 136.13 12.2855 135.692 12.2188C135.283 12.1558 134.81 12.123 134.275 12.123C133.482 12.123 132.777 12.2601 132.174 12.5317C131.571 12.803 131.06 13.1782 130.656 13.6446C130.251 14.111 129.943 14.6674 129.736 15.3015C129.532 15.9316 129.429 16.623 129.429 17.3553C129.429 18.9345 129.85 20.2151 130.684 21.152C131.518 22.093 132.773 22.5675 134.409 22.5675C135.377 22.5675 136.369 22.3699 137.081 22.0848C137.081 22.0848 137.217 22.0185 137.158 21.8581L136.692 20.5653M139.992 16.3104C140.083 15.6967 140.249 15.1853 140.511 14.7885C140.902 14.183 141.499 13.8516 142.337 13.8516C143.175 13.8516 143.73 14.1846 144.126 14.7885C144.39 15.1874 144.504 15.7172 144.547 16.3104L139.972 16.3096L139.992 16.3104ZM146.349 14.9603C146.188 14.3507 145.79 13.7329 145.531 13.4506C145.118 13.0047 144.717 12.6897 144.317 12.5178C143.738 12.2692 143.115 12.1416 142.487 12.1427C141.689 12.1427 140.964 12.2789 140.377 12.5559C139.79 12.8349 139.296 13.2146 138.907 13.6892C138.519 14.1637 138.227 14.7242 138.041 15.3666C137.855 16.0007 137.761 16.6962 137.761 17.4245C137.761 18.1691 137.858 18.8605 138.05 19.4864C138.244 20.1165 138.556 20.6688 138.977 21.127C139.398 21.5893 139.937 21.9494 140.585 22.203C141.229 22.4546 142.01 22.5851 142.905 22.5823C144.751 22.5761 145.723 22.1609 146.12 21.9359C146.19 21.8958 146.257 21.8266 146.174 21.6274L145.757 20.445C145.693 20.2687 145.516 20.3325 145.516 20.3325C145.059 20.5052 144.411 20.8153 142.893 20.8112C141.901 20.8095 141.168 20.5137 140.706 20.0502C140.237 19.5756 140.002 18.8842 139.965 17.9023L146.363 17.9072C146.363 17.9072 146.531 17.9056 146.548 17.7395C146.555 17.6707 146.767 16.4139 146.358 14.9615L146.349 14.9603ZM88.8544 16.3104C88.9447 15.6967 89.1115 15.1853 89.3726 14.7885C89.7646 14.183 90.3606 13.8516 91.1987 13.8516C92.0368 13.8516 92.5915 14.1846 92.9883 14.7885C93.2511 15.1874 93.3661 15.7172 93.4094 16.3104L88.8341 16.3096L88.8544 16.3104ZM95.2112 14.9603C95.0509 14.3507 94.6525 13.7329 94.3933 13.4506C93.9803 13.0047 93.5795 12.6897 93.1786 12.5178C92.5999 12.2692 91.9774 12.1416 91.3485 12.1427C90.5509 12.1427 89.8261 12.2789 89.239 12.5559C88.6519 12.8349 88.158 13.2146 87.7693 13.6892C87.3818 14.1637 87.0891 14.7242 86.9028 15.3666C86.717 16.0007 86.6234 16.6962 86.6234 17.4245C86.6234 18.1691 86.7202 18.8605 86.9133 19.4864C87.1069 20.1165 87.4194 20.6688 87.8365 21.127C88.2576 21.5893 88.7961 21.9494 89.4439 22.203C90.0877 22.4546 90.8651 22.5851 91.7639 22.5823C93.6103 22.5761 94.582 22.1609 94.9788 21.9359C95.0492 21.8958 95.1165 21.8266 95.0326 21.6274L94.6156 20.445C94.5512 20.2687 94.3747 20.3325 94.3747 20.3325C93.9172 20.5052 93.2693 20.8153 91.751 20.8112C90.7631 20.8095 90.0261 20.5137 89.5646 20.0502C89.0949 19.5756 88.8601 18.8842 88.8236 17.9023L95.2209 17.9072C95.2209 17.9072 95.3894 17.9056 95.4068 17.7395C95.4137 17.6707 95.6258 16.4139 95.2157 14.9615L95.2112 14.9603ZM75.0475 20.5244C74.7969 20.3223 74.7621 20.2728 74.6791 20.1414C74.5524 19.9438 74.4876 19.6628 74.4876 19.3027C74.4876 18.7382 74.6738 18.329 75.0585 18.0549C75.0544 18.0557 75.6091 17.5721 76.9129 17.5885C77.4932 17.599 78.0721 17.6489 78.6458 17.7378V20.6713H78.6466C78.6466 20.6713 77.8368 20.8476 76.9218 20.9032C75.6221 20.9822 75.0471 20.5252 75.0512 20.5264L75.0475 20.5244ZM77.5903 15.9831C77.3311 15.9639 76.9951 15.9545 76.5942 15.9545C76.0476 15.9545 75.5172 16.0232 75.0232 16.1582C74.5252 16.294 74.0758 16.5043 73.6911 16.7842C73.3054 17.0622 72.9882 17.4262 72.7639 17.8479C72.5376 18.2734 72.4222 18.7725 72.4222 19.3371C72.4222 19.9099 72.5206 20.4049 72.7149 20.81C72.9054 21.2117 73.1921 21.5591 73.549 21.8205C73.9041 22.0815 74.3426 22.2746 74.8487 22.3892C75.3508 22.505 75.9177 22.5635 76.5412 22.5635C77.1971 22.5635 77.849 22.5078 78.4806 22.4002C79.0186 22.3065 79.5545 22.2012 80.0881 22.0844C80.301 22.0349 80.5375 21.9698 80.5375 21.9698C80.6954 21.9293 80.6832 21.7587 80.6832 21.7587L80.6796 15.8673C80.6796 14.5745 80.3379 13.6131 79.6633 13.0198C78.9912 12.4266 78.0073 12.1279 76.7319 12.1279C76.2541 12.1279 75.4808 12.1934 75.0192 12.2871C75.0192 12.2871 73.6264 12.5604 73.0514 13.0153C73.0514 13.0153 72.9251 13.0939 72.9939 13.2719L73.4474 14.4992C73.5037 14.6584 73.6571 14.604 73.6571 14.604C73.6571 14.604 73.7053 14.5847 73.762 14.5508C74.9888 13.8757 76.5436 13.8962 76.5436 13.8962C77.2319 13.8962 77.7664 14.0373 78.1227 14.3135C78.4713 14.5839 78.6491 14.9926 78.6491 15.8518V16.1247C78.1025 16.0445 77.5963 15.9982 77.5963 15.9982L77.5903 15.9831ZM129.012 12.6569C129.021 12.6354 129.026 12.6121 129.026 12.5886C129.026 12.5651 129.021 12.5419 129.012 12.5202C129.004 12.4985 128.99 12.4789 128.974 12.4624C128.957 12.446 128.937 12.4331 128.916 12.4246C128.807 12.3828 128.264 12.267 127.847 12.2409C127.045 12.1901 126.6 12.3268 126.199 12.5084C125.803 12.6888 125.365 12.9789 125.122 13.3144L125.121 12.5289C125.121 12.4209 125.045 12.3337 124.938 12.3337H123.302C123.196 12.3337 123.119 12.4209 123.119 12.5289V22.1433C123.119 22.1952 123.139 22.245 123.176 22.2817C123.212 22.3185 123.261 22.3391 123.313 22.3393H124.989C125.04 22.3391 125.09 22.3185 125.126 22.2817C125.162 22.245 125.183 22.1952 125.183 22.1433V17.3156C125.183 16.6692 125.253 16.0269 125.394 15.6219C125.532 15.2213 125.72 14.9018 125.952 14.6727C126.174 14.4514 126.444 14.2872 126.742 14.194C127.021 14.1131 127.31 14.072 127.6 14.0721C127.934 14.0721 128.301 14.1588 128.301 14.1588C128.424 14.1727 128.492 14.0966 128.534 13.9845C128.644 13.6896 128.955 12.8063 129.016 12.6303" fill="#CFD1D7"/>
<path fill-rule="evenodd" clip-rule="evenodd" d="M113.356 8.21958C113.148 8.15631 112.938 8.10576 112.724 8.06821C112.438 8.01983 112.147 7.99711 111.856 8.00029C110.701 8.00029 109.791 8.33005 109.151 8.98137C108.516 9.62779 108.084 10.6125 107.868 11.9082L107.79 12.3456H106.34C106.34 12.3456 106.163 12.3382 106.125 12.5334L105.887 13.8753C105.871 14.0038 105.925 14.084 106.096 14.0831H107.507L106.075 22.1605C105.963 22.811 105.834 23.3461 105.692 23.7516C105.552 24.1517 105.415 24.4516 105.247 24.6692C105.084 24.8799 104.929 25.035 104.662 25.1254C104.442 25.2003 104.188 25.2346 103.911 25.2346C103.756 25.2346 103.55 25.2084 103.399 25.1778C103.247 25.1475 103.168 25.1131 103.054 25.0648C103.054 25.0648 102.888 25.001 102.823 25.1688C102.77 25.3058 102.394 26.3511 102.349 26.4804C102.304 26.6081 102.368 26.7087 102.448 26.7377C102.636 26.8057 102.775 26.849 103.031 26.91C103.387 26.9947 103.686 27 103.967 27C104.555 27 105.091 26.9165 105.535 26.7545C105.982 26.5913 106.371 26.3069 106.715 25.922C107.087 25.5067 107.321 25.0718 107.545 24.4786C107.767 23.8907 107.955 23.1608 108.106 22.3102L109.545 14.0831H111.649C111.649 14.0831 111.826 14.0897 111.863 13.8954L112.101 12.5534C112.118 12.425 112.064 12.3448 111.893 12.3456H109.851C109.861 12.299 109.954 11.5732 110.188 10.8899C110.288 10.5982 110.476 10.363 110.636 10.2014C110.785 10.0475 110.968 9.93211 111.171 9.86508C111.393 9.79575 111.624 9.76207 111.856 9.76525C112.049 9.76525 112.237 9.78857 112.381 9.81885C112.579 9.8614 112.656 9.8839 112.708 9.89945C112.916 9.96368 112.944 9.90149 112.985 9.79962L113.473 8.4446C113.523 8.29895 113.401 8.23758 113.356 8.21958ZM84.8212 22.1777C84.8212 22.2857 84.7451 22.3736 84.6382 22.3736H82.9446C82.8373 22.3736 82.7612 22.2857 82.7612 22.1777V8.40328C82.7612 8.29568 82.8373 8.20854 82.9446 8.20854H84.6382C84.7451 8.20854 84.8212 8.29568 84.8212 8.40328V22.1777Z" fill="#CFD1D7"/>
</svg>
